src/images/icon-adv-1.svg

<svg width="60" height="80" viewBox="0 0 60 80" fill="none" xmlns="http://www.w3.org/2000/svg">
<path d="M26.4489 75.6327C31.1019 72.2041 34.0407 68.0408 34.2856 62.4082C34.5305 53.1021 28.8979 46.2449 19.5917 45.0204C18.1223 44.7755 17.8774 44.2857 17.8774 43.0612C17.8774 36.449 17.8774 29.5919 17.8774 22.9796C17.8774 20.0408 19.3468 18.5714 21.5509 18.5714C23.9999 18.5714 25.4693 20.2857 25.4693 22.9796C25.4693 28.6123 25.4693 34 25.4693 39.6327C25.4693 40.3674 24.9795 41.347 26.204 41.347C27.1836 41.347 26.9387 40.1225 26.9387 39.6327C26.9387 30.0817 26.9387 20.7755 26.9387 11.2245C26.9387 10.7347 26.9387 10 26.9387 9.26532C27.4285 7.30614 29.1427 6.08165 31.1019 6.08165C33.0611 6.32655 34.2856 7.79594 34.2856 9.75512C34.5305 15.1429 34.2856 20.5306 34.2856 25.9184C34.2856 30.0817 34.2856 34.4898 34.5305 38.6531C34.5305 39.6327 33.7958 41.347 35.2652 41.347C36.7346 41.347 35.9999 39.6327 35.9999 38.6531C36.2448 27.3878 35.9999 15.8776 36.2448 4.61226C36.2448 1.67349 37.9591 0.204099 40.4081 0.448997C42.3672 0.693895 43.5917 2.40818 43.5917 4.85716C43.5917 12.2041 43.5917 19.551 43.5917 26.898C43.5917 31.0612 43.5917 35.4694 43.5917 39.6327C43.5917 40.3674 43.3468 41.347 44.3264 41.347C45.5509 41.347 45.0611 40.3674 45.0611 39.6327C45.0611 30.8163 45.0611 22 45.306 13.4286C45.306 12.449 45.306 11.4694 45.5509 10.4898C46.0407 8.77553 47.2652 7.79594 49.2244 8.04083C50.9387 8.04083 52.4081 9.02043 52.4081 10.9796C52.653 17.8368 52.653 24.6939 52.653 31.7959V32.2857C49.2244 35.9592 50.9387 40.3674 50.6938 44.7755C50.6938 47.4694 49.7142 49.1837 47.5101 50.6531C44.3264 52.6123 41.1427 54.8163 40.1632 58.9796C39.9183 59.7143 39.9183 60.6939 39.9183 61.6735C39.9183 62.1633 39.9183 62.6531 40.653 62.6531C41.1427 62.6531 41.3876 62.1633 41.3876 61.6735C41.6325 56.7755 44.5713 54.0816 48.2448 51.8776C51.1836 50.1633 52.653 47.9592 52.4081 44.5306C52.1632 41.8368 52.1632 39.3878 52.4081 36.6939C52.4081 34.2449 53.8774 32.7755 56.0815 32.7755C58.0407 32.7755 59.755 34.4898 59.755 36.6939C59.5101 45.0204 60.2448 53.1021 59.5101 61.4286C58.5305 69.0204 54.3672 74.6531 47.2652 77.5919C40.1632 80.7755 33.306 80.0408 26.4489 75.6327Z" fill="white"/>
<path d="M17.3878 44.5306V45.5102C25.9592 45.5102 32.8163 52.3674 32.8163 60.9388H33.7959H32.8163C32.5714 69.5102 25.9592 76.3674 17.3878 76.3674H17.1429C8.57143 76.3674 1.95918 69.5102 1.95918 60.6939H1.22449L1.95918 60.9388V60.6939H1.22449L1.95918 60.9388V60.6939C1.95918 52.3674 8.81633 45.5102 17.3878 45.5102V43.551C7.59184 43.551 0 51.1429 0 60.6939H0.979592H0C0 70.4898 7.59184 78.3265 17.1429 78.3265H17.3878C26.9388 78.3265 34.5306 70.7347 34.7755 60.9388C34.7755 56.0408 32.8163 51.8776 29.6327 48.6939C26.449 45.5102 22.0408 43.551 17.3878 43.551V44.5306Z" fill="#FEFEFE"/>
<path d="M27.6734 55.551C27.1836 55.0612 26.4489 55.0612 26.204 55.551L17.3877 64.3673L8.57135 55.551C8.08156 55.0612 7.59176 55.0612 7.10197 55.551C6.61217 55.7959 6.61217 56.5306 7.10197 57.0204L16.653 66.3265C16.8979 66.5714 17.1428 66.8163 17.3877 66.8163C17.6326 66.8163 17.8775 66.5714 18.1224 66.3265L27.6734 57.0204C27.9183 56.5306 27.9183 55.7959 27.6734 55.551Z" fill="white"/>
</svg>

<svg xmlns="http://www.w3.org/2000/svg" width="60" height="80" fill="none" viewBox="0 0 60 80">
	<path fill="#fff" d="M26.449 75.633c4.653-3.429 7.592-7.592 7.837-13.225.245-9.306-5.388-16.163-14.694-17.388-1.47-.245-1.715-.734-1.715-1.959V22.98c0-2.94 1.47-4.409 3.674-4.409 2.449 0 3.918 1.715 3.918 4.409v16.653c0 .734-.49 1.714.735 1.714.98 0 .735-1.224.735-1.714V9.265c.49-1.959 2.204-3.183 4.163-3.183 1.96.245 3.184 1.714 3.184 3.673.245 5.388 0 10.776 0 16.163 0 4.164 0 8.572.245 12.735 0 .98-.735 2.694.734 2.694 1.47 0 .735-1.714.735-2.694.245-11.265 0-22.775.245-34.04 0-2.94 1.714-4.409 4.163-4.164 1.96.245 3.184 1.96 3.184 4.408V39.633c0 .734-.245 1.714.734 1.714 1.225 0 .735-.98.735-1.714 0-8.817 0-17.633.245-26.204 0-.98 0-1.96.245-2.94.49-1.713 1.714-2.693 3.673-2.448 1.715 0 3.184.98 3.184 2.939.245 6.857.245 13.714.245 20.816v.49c-3.429 3.673-1.714 8.081-1.96 12.49 0 2.693-.979 4.408-3.183 5.877-3.184 1.96-6.367 4.163-7.347 8.327-.245.734-.245 1.714-.245 2.694 0 .49 0 .98.735.98.49 0 .735-.49.735-.98.245-4.898 3.183-7.592 6.857-9.796 2.939-1.715 4.408-3.919 4.163-7.347a41.887 41.887 0 0 1 0-7.837c0-2.45 1.47-3.919 3.673-3.919 1.96 0 3.674 1.715 3.674 3.919-.245 8.326.49 16.408-.245 24.735-.98 7.591-5.143 13.224-12.245 16.163-7.102 3.183-13.959 2.449-20.816-1.96z"/>
	<path fill="#FEFEFE" d="M17.388 44.53v.98A15.364 15.364 0 0 1 32.816 60.94h.98-.98c-.245 8.571-6.857 15.428-15.428 15.428h-.245c-8.572 0-15.184-6.857-15.184-15.673h-.735l.735.245v-.245h-.735l.735.245v-.245c0-8.327 6.857-15.184 15.429-15.184v-1.959C7.592 43.551 0 51.143 0 60.694h.98H0c0 9.796 7.592 17.632 17.143 17.632h.245c9.55 0 17.143-7.591 17.387-17.387 0-4.898-1.959-9.061-5.142-12.245-3.184-3.184-7.592-5.143-12.245-5.143v.98z"/>
	<path fill="#fff" d="M27.673 55.551c-.49-.49-1.224-.49-1.469 0l-8.816 8.816-8.817-8.816c-.49-.49-.98-.49-1.469 0-.49.245-.49.98 0 1.47l9.551 9.305c.245.245.49.49.735.49s.49-.245.734-.49l9.551-9.306c.245-.49.245-1.224 0-1.469z"/>
</svg>
